X: 32795
T: Poor But Happy At 53
R: reel
M: 4/4
K: Eminor
EFGA BE3|B2Ac BAGE|DEFG AD3|A2BG AGFD|
EFGA Beed|edBA BBGA|B2GB AGFA|(3GFE FD EFGF|
EFGA B2BA|(3Bcd Ac BAGE|DEFG AEE2|A2BG AGFD|
EFGA B2ed|edBA B2GA|B2 GB AGFA|(3GFE FD E4||
edBA (3Bcd ef|e2ef edBA|(3Bcd ef g3a|gfed e3f|
g2fg edBA|B2GB ABcA|B2GB AGFA|(3GFE FD E4|
edBA (3Bcd ef|e2ef edB2|(3Bcd ef gabg|agfa geef|
g2fg edBA|BBGB ABcA|B2BG AGFA|(3GFE FD DE3||

